X:1
T:75
L:1/8
Q:1/4=88
M:2/4
K:Emin
V:1 treble nm="Piano" snm="Pno."
V:1
"^欢快的" .B.e B/>A/G/F/ | z/ !>!EB,/ EG/A/ | .B.e d/>e/d/B/ | z/ !>!GA/ Bd/e/ | dA/A/ B/>A/G/A/ | %5
 z/ !>!EF/ EG/B/ | A/>G/B,/D/ z/ AG/4A/4 | E4 |] %8

